svgs/duotone/value-absolute.svg

<svg xmlns="http://www.w3.org/2000/svg" viewBox="0 0 512 512"><!--! Font Awesome Pro 6.3.0 by @fontawesome - https://fontawesome.com License - https://fontawesome.com/license (Commercial License) Copyright 2023 Fonticons, Inc. --><defs><style>.fa-secondary{opacity:.4}</style></defs><path class="fa-primary" d="M374.6 137.4c-12.5-12.5-32.75-12.5-45.25 0L256 210.8L182.6 137.4c-12.5-12.5-32.75-12.5-45.25 0s-12.5 32.75 0 45.25l73.38 73.37l-73.38 73.38c-12.5 12.5-12.5 32.75 0 45.25C143.6 380.9 151.8 384 160 384s16.38-3.125 22.62-9.375L256 301.3l73.38 73.38C335.6 380.9 343.8 384 352 384s16.38-3.125 22.62-9.375c12.5-12.5 12.5-32.75 0-45.25l-73.38-73.38l73.38-73.37C387.1 170.1 387.1 149.9 374.6 137.4z"/><path class="fa-secondary" d="M32 32.01c-17.67 0-32 14.31-32 32v384c0 17.69 14.33 32 32 32s32-14.31 32-32v-384C64 46.33 49.67 32.01 32 32.01zM480 32.01c-17.67 0-32 14.31-32 32v384c0 17.69 14.33 32 32 32s32-14.31 32-32v-384C512 46.33 497.7 32.01 480 32.01z"/></svg>

<svg xmlns="http://www.w3.org/2000/svg" viewBox="0 0 512 512"><!--! Font Awesome Pro 6.4.0 by @fontawesome - https://fontawesome.com License - https://fontawesome.com/license (Commercial License) Copyright 2023 Fonticons, Inc. --><defs><style>.fa-secondary{opacity:.4}</style></defs><path class="fa-primary" d="M182.6 137.4c-12.5-12.5-32.8-12.5-45.3 0s-12.5 32.8 0 45.3L210.7 256l-73.4 73.4c-12.5 12.5-12.5 32.8 0 45.3s32.8 12.5 45.3 0L256 301.3l73.4 73.4c12.5 12.5 32.8 12.5 45.3 0s12.5-32.8 0-45.3L301.3 256l73.4-73.4c12.5-12.5 12.5-32.8 0-45.3s-32.8-12.5-45.3 0L256 210.7l-73.4-73.4z"/><path class="fa-secondary" d="M64 64c0-17.7-14.3-32-32-32S0 46.3 0 64V448c0 17.7 14.3 32 32 32s32-14.3 32-32V64zm448 0c0-17.7-14.3-32-32-32s-32 14.3-32 32V448c0 17.7 14.3 32 32 32s32-14.3 32-32V64z"/></svg>
